X:2156 
T:Yn unnysup 
C:Alternative version or B part, Margaret Clague 
C:Traditional
O:Isle of Man
Z:Clague collection
B:Kiaull Vannin #156 
N:See also KV155
L:1/8
M:6/8 
K:G 
dBc BAB|dBc BAB|c2c (Bc)B|A3-A2A|BBB ccc|ddd eee|d2d (cB)A|(G3 G2)z|| 

